X: 228
T:The Reel of Rio
T:Another reel in G
M:4/4
L:1/8
Z: Rachel Marsh
K:G
DEGA ~B3 d | eg ~g2 agef | gede gedB | A2 BG AGEG |
DEGA ~B3 d | eg ~g2 agef | gede gedB |1 AcBA G2 GE :||2 ABBA G2 Bc ||
dg ~g2 bgfg | bgfg edBd | edBd edBG | A2 BG AGEG |
DEGA ~B3 d | eg ~g2 agef | gede gedB |1 AcBA G2 BC :||2 AcBA G4 ||

